X:1
T:Caber Feidh  "CYMRU"
M:6/8
L:1/8
Q:80
C:Setting by D. Johnstone
S:Jig
K:HP
e | \
{a}gag{a}eg{a}e | \
{gf}g3{ade}d2e | \
g{a}fg{a}dg{a}d |
{g}B{d}G{e}G{g}G2{d}B | | \
{g}A{d}A{e}AaA{a}g | \
{ag}a3e2{a}g |
aeaeae | \
{g}c{d}A{e}A{GAG}A2e | | \
{a}gag{a}eg{a}e |
{gf}g3{ade}d2e | \
g{a}fg{a}dg{a}d | \
{g}B{d}G{e}G{g}G2{d}B| |
{g}A{d}A{e}A{gcd}c2d | \
{g}e2{AGAG}A{ag}a2e | \
{gfg}f2aef{e}f |
{g}c{d}A{e}A{GAG}A2|]
g | \
{a}B{d}G{e}G{dc}d2e | \
{A}ed{e}B{Gdc}d2e |
{g}G{d}G{e}G{g}de{A}e | \
{g}B{d}G{e}G{g}G2a | | \
c{d}A{e}A{gef}e2f |
{e}fec{gef}e2f | \
{g}A{d}A{e}A{g}ef{e}f | \
{g}c{d}A{e}A{GAG}A2g| |
{a}B{d}G{e}G{gdc}d2e | \
{A}ed{e}B{Gdc}d2e | \
{g}G{d}G{e}G{g}de{A}e |
{g}B{d}G{e}G{g}G2{d}B | | \
{g}A{d}A{e}A{gcd}c2d | \
{g}e2{AGAG}A{ag}a2e |
{gfg}f2aef{e}f | \
{g}c{d}A{e}A{GAG}A2|]
g |
{a}c{e}c{G}c{gf}g2{a}c | \
e{g}c{G}c{gf}g2e | \
{g}c{e}c{G}c{gf}g2e |
{g}c{d}A{e}A{GAG}A2{d}c | | \
{g}d{e}d{G}d{ag}a2d | \
f{g}d{G}d{ag}a2f |
{g}d{e}d{G}d{ag}a2g | \
{a}fd{G}d{gdG}d2e | | \
{a}c{e}c{G}c{gf}g2{a}c |
e{g}c{G}c{gf}g2e | \
{g}c{e}c{G}c{gf}g2e | \
{g}c{d}A{e}A{GAG}A2f| |
{ag}a2f{gf}g2e | \
{g}fd{G}d{gef}e2d | \
{g}ca{g}aef{e}f |
{g}c{d}A{e}A{GAG}A2|]
g | \
{a}G{d}G{e}G{g}G2{d}B | \
{g}G{d}G{e}G{d}B{e}A{d}B |
{g}Gd{G}d{g}de{A}e | \
{g}B{d}G{e}G{g}G2{d}B | | \
{g}A{d}A{e}A{g}A2{d}c |
{g}A{d}A{e}A{d}c{e}B{d}c | \
{g}Ae{A}e{g}ef{e}f | \
{g}c{d}A{e}A{GAG}A2g| |
{a}G{d}G{e}G{g}G2{d}B | \
{g}G{d}G{e}G{d}B{e}A{d}B | \
{g}Gd{G}d{g}de{A}e |
{g}B{d}G{e}G{g}G2{d}B | | \
{g}A{d}A{e}A{gcd}c2d | \
{g}e2{AGAG}A{ag}a2e |
{gfg}f2aef{e}f | \
{g}c{d}A{e}A{GAG}A2|]
